X: 1
T: The Humors of Westport
C: 
R: Reel
%Q: 232
M: 4/4
L: 1/8
K: F
|:\
f2 fe fc Ac | f2 fe fa ge | fa ge fc Ac | BA GA Bc de | 
f2 fe fc Ac | f2 fe fa gb | af ge fc Ac | BA GA Bd cB :| 
|:\
AF cF dF cF | AF cF Bd cB | AF cF dF cF | BA GA Bd cB | 
AF cF dF cF | AF cF Bd cB | Ac fa ge fc | BA GA Bc de :| 
